X:1
T:Title
%%score 1 2 3 4
L:1/8
M:4/4
K:C
V:1 treble nm="Church Organ, Church Organ"
V:2 treble nm="French Horn, French Horn"
V:3 bass nm="Trombone, Trombone"
V:4 bass nm="Tuba, Tuba"
V:1
 c2 c2 c3 G | AABB c4 | G2 ^FG e3 ^f | edAB c2 G2 | A2 AA G3 c | eddc e2 dG | c3 c d3 d | %7
w: By~Pemberton~Pierce,~1884 * * *|||||||
 edcB A2 f2 | e3 d c2 Bc | e2 d2 c4 | c2 c2 c3 c | dcBA A2 G2 | c2 c2 c3 d | edce e2 d2 | %14
w: |||||||
 c3 c d3 d | edcB A4 | f3 f e2 c2 | e2 d2 c4 |] %18
w: ||||
V:2
 E2 F2 E3 E | FFFF E4 | E2 _E=E G3 A | GF F2 E2 E2 | F2 FF E3 E | ^F2 F2 G2 GG | G3 G G3 G | %7
w: Hail!~ hail!~ hail!~ this~|hap py~ joy ous~ morn!~|Mor tals,~ dis pel~ all~|gloom~ * and~ sad ness,~|This~ is~ the~ day~ for~|joy~ and~ glad ness,~ For~|Christ,~ the~ Prince~ of~|
 cBAG F2 A2 | G3 F E2 DE | G2 F2 E4 | F2 F2 F3 F | F2 F2 F2 E2 | E2 F2 E3 G | G2 G2 G2 G2 | %14
w: Peace,~ * is~ * born~ In~|Beth le hem~ this~ *|joy ful~ morn.~|Shout~ a loud~ the~|won drous~ sto ry,~|Glo ry~ in~ the~|high est,~ glo ry;~|
 G3 G G3 G | cBAG F4 | A3 A G2 E2 | G2 F2 E4 |] %18
w: Christ,~ our~ Sav iour,~|Priest,~ * and~ * King~|Come~ e ter nal~|life~ to~ bring.~|
V:3
 G,2 A,2 G,3 C | CCG,G, G,4 | C2 CC C3 C | B,2 CD C2 C2 | C2 CC C3 C | C2 C2 C2[K:bass] B,B, | %6
 C3 C B,3 B, | C2 C2 C2 C2 | C3[K:bass] G, G,2 G,2 | B,2 B,2 C4 | A,2 A,2 A,3 A, | %11
 A,2[K:treble] C2 C2 C2 | G,2 A,2[K:bass] G,3 B, | CB, C2[K:treble] C2 B,2 | C3 C B,3 B, | %15
 C2 C2 C4 | C3 C C2 C2 | B,2 B,2 C4 |] %18
V:4
 C,2 F,2 C,3 C, | F,F,G,G, C,4 | C,2 C,C, C,3 C, | G,2 G,2 C,2 C,2 | F,2 F,F, C,3 C, | %5
 D,2 D,2 G,2 G,G, | E,3 E, G,3 G, | C,2 C,2 F,2 F,2 | G,3 G, G,2 G,2 | G,2 G,2 C,4 | %10
 F,2 F,2 F,3 F, | F,2 F,2 C,2 C,2 | C,2 F,2 C,3 G, | CG,E,C, G,2 G,2 | E,3 E, G,3 G, | %15
 C,2 C,2 F,4 | F,3 F, G,2 G,2 | G,2 G,2 C,4 |] %18

